X:3303
T:Macleod's Fancy
P:Capt. William McLeod's Fancy
C:Wm. Marshall
R:Jig (4x32)
B:RSCDS 33-3
Z:Anselm Lingnau <anselm@strathspey.org>
M:6/8
L:1/8
K:F
|:"F"f2 c "C7"cdB|"F"A2 G F3|"Gm"gab "G7"agf|"C"{f}e2 d c2|
  "Gm"d2B b2B|"F"c2A a2A|1 "Gm"GAB "G7"AGF|"C"EGF "C7"EDC:|2 \
                           "F"{B}AGF "C7"CDE|"F"[F3A,3] F3||
|:"C"CCC C2 f|"C7"ef/g/e c2 z|"F"CCC C2 f|fg/a/f c3|
  "C7"b2g "F"a2f|"C7"g2e "F"f2c|"Bb"{e}dcB "C7"ABG|"F"{E}F3 F3:|
